Numix-GalliumOS/64/mimetypes/text-x-r.svg

<?xml version="1.0" encoding="UTF-8" standalone="no"?>
<svg
   xmlns:dc="http://purl.org/dc/elements/1.1/"
   xmlns:cc="http://creativecommons.org/ns#"
   xmlns:rdf="http://www.w3.org/1999/02/22-rdf-syntax-ns#"
   xmlns:svg="http://www.w3.org/2000/svg"
   xmlns="http://www.w3.org/2000/svg"
   xmlns:sodipodi="http://sodipodi.sourceforge.net/DTD/sodipodi-0.dtd"
   xmlns:inkscape="http://www.inkscape.org/namespaces/inkscape"
   width="64px"
   height="64px"
   viewBox="0 0 64 64"
   version="1.1"
   id="svg2"
   inkscape:version="0.91 r13725"
   sodipodi:docname="text-x-r0b.svg">
  <metadata
     id="metadata29">
    <rdf:RDF>
      <cc:Work
         rdf:about="">
        <dc:format>image/svg+xml</dc:format>
        <dc:type
           rdf:resource="http://purl.org/dc/dcmitype/StillImage" />
        <dc:title></dc:title>
      </cc:Work>
    </rdf:RDF>
  </metadata>
  <defs
     id="defs27" />
  <sodipodi:namedview
     pagecolor="#ffffff"
     bordercolor="#666666"
     borderopacity="1"
     objecttolerance="10"
     gridtolerance="10"
     guidetolerance="10"
     inkscape:pageopacity="0"
     inkscape:pageshadow="2"
     inkscape:window-width="1366"
     inkscape:window-height="713"
     id="namedview25"
     showgrid="true"
     inkscape:zoom="16"
     inkscape:cx="27.873614"
     inkscape:cy="27.865223"
     inkscape:window-x="0"
     inkscape:window-y="28"
     inkscape:window-maximized="1"
     inkscape:current-layer="svg2">
    <inkscape:grid
       type="xygrid"
       id="grid3368" />
  </sodipodi:namedview>
  <g
     id="surface1">
    <path
       style="stroke:none;fill-rule:nonzero;fill:#98b3d0;fill-opacity:1"
       d="M 10.671875 0 C 9.296875 0 8 1.355469 8 2.789062 L 8 61.210938 C 8 62.566406 9.375 64 10.671875 64 L 53.328125 64 C 54.625 64 56 62.566406 56 61.210938 L 56 18 L 38 0 Z M 10.671875 0 "
       id="path5" />
    <path
       style=" stroke:none;fill-rule:nonzero;fill:rgb(0%,0%,0%);fill-opacity:0.196078;"
       d="M 42 18 L 56 32 L 56 18 Z M 42 18 "
       id="path7" />
    <path
       style=" stroke:none;fill-rule:nonzero;fill:rgb(100%,100%,100%);fill-opacity:0.392157;"
       d="M 38 0 L 55.984375 18 L 40.757812 18 C 39.410156 18 38 16.574219 38 15.226562 Z M 38 0 "
       id="path9" />
  </g>
  <g
     id="g3342"
     transform="matrix(1.3333333,0,0,1.3333333,1.3333333,-0.6666654)">
    <path
       sodipodi:nodetypes="ssccsssccss"
       inkscape:connector-curvature="0"
       id="path59"
       d="m 23,19.003906 c -6.629,0 -12,3.582 -12,8 0,3.481616 3.59184,6.435794 8.250001,7.535156 l 0,-2.65039 C 16.832538,30.800621 15,29.020316 15,27.003906 c 0,-3.313 4.254,-6 9.5,-6 5.246,0 9.5,2.688 9.5,6 0,2.592172 -2.459949,4.944535 -6.105976,5.783048 0.293451,0.482501 0.586467,0.965217 0.876953,1.433593 C 32.564758,32.876542 35,30.067455 35,27.003906 c 0,-4.418 -5.371,-8 -12,-8 z"
       style="fill:#ffffff;fill-opacity:1;fill-rule:nonzero;stroke:none" />
    <path
       id="path63"
       d="M 20,23.004 20,38 l 3,0 0,-5 1,0 3,5 3,0 -3,-5 -0.219,-0.344 c 1.875,-0.719 3.215,-2.523 3.215,-4.656 0,-2.758 -2.238,-4.996 -5,-4.996 m -1.996,3 1.996,0 c 1.105,0 2,0.895 2,1.996 0,1.109 -0.898,2 -2,2 L 23,30 23,26 m 0,0.004"
       style="fill:#ffffff;fill-opacity:1;fill-rule:nonzero;stroke:none"
       inkscape:connector-curvature="0" />
  </g>
</svg>

<svg xmlns="http://www.w3.org/2000/svg" viewBox="0 0 64 64">
 <g>
  <path d="m 10.672 0 c -1.375 0 -2.672 1.355 -2.672 2.789 l 0 58.42 c 0 1.355 1.375 2.789 2.672 2.789 l 42.656 0 c 1.297 0 2.672 -1.434 2.672 -2.789 l 0 -43.21 l -18 -18 m -27.328 0" style="fill:#98b3d0;fill-opacity:1;stroke:none;fill-rule:nonzero"/>
  <path d="m 42 18 l 14 14 l 0 -14 m -14 0" style="fill:#000;fill-opacity:0.196;stroke:none;fill-rule:nonzero"/>
  <path d="m 38 0 l 17.984 18 l -15.227 0 c -1.348 0 -2.758 -1.426 -2.758 -2.773 m 0 -15.227" style="fill:#fff;fill-opacity:0.392;stroke:none;fill-rule:nonzero"/>
 </g>
 <g transform="matrix(1.3333333,0,0,1.3333333,1.3333333,-0.6666654)">
  <path d="m 23 19 c -6.629 0 -12 3.582 -12 8 0 3.482 3.592 6.436 8.25 7.535 l 0 -2.65 c -2.417 -1.088 -4.25 -2.868 -4.25 -4.885 c 0 -3.313 4.254 -6 9.5 -6 5.246 0 9.5 2.688 9.5 6 0 2.592 -2.46 4.945 -6.106 5.783 0.293 0.483 0.586 0.965 0.877 1.434 c 3.794 -1.344 6.229 -4.153 6.229 -7.217 c 0 -4.418 -5.371 -8 -12 -8 z" style="fill:#fff;fill-opacity:1;stroke:none;fill-rule:nonzero"/>
  <path d="M 20,23.004 20,38 l 3,0 0,-5 1,0 3,5 3,0 -3,-5 -0.219,-0.344 c 1.875,-0.719 3.215,-2.523 3.215,-4.656 0,-2.758 -2.238,-4.996 -5,-4.996 m -1.996,3 1.996,0 c 1.105,0 2,0.895 2,1.996 0,1.109 -0.898,2 -2,2 L 23,30 23,26 m 0,0.004" style="fill:#fff;fill-opacity:1;stroke:none;fill-rule:nonzero"/>
 </g>
</svg>
